X:1
T:Sinking Down
T:Sinking Down
T:Fred L. Beard
T:Tom A. Ferguson, 1912, alt.
T:Public Domain Courtesy of the Cyber Hymnal™
T:Public Domain Courtesy of the Cyber Hymnal™
C:Fred L. Beard
Z:Public Domain
Z:Courtesy of the Cyber Hymnal™
%%score ( 1 2 ) ( 3 4 )
L:1/8
Q:1/4=98
M:4/4
K:Ab
V:1 treble 
V:2 treble 
V:3 bass 
V:4 bass 
V:1
 [CE]>[CE] | [CA]>[CA] [CA]>[CA] [EA]2 [EB]2 | c6 [Ec]>[Ed] | [Ae]>[Ae] [Ae]>[Ae] [Ac]2 A2 | %4
w: 1.~There’s a|broth- er sink- ing down to-|day (sink- ing|down); Will you lend to him|
w: 2.~Ma- ny|souls are sink- ing down to-|day (yes, to-|day) That have nev- er heard|
w: 3.~There are|brok- en hearts so sad to-|night (sad to-|night), That are lost from Je-|
 B6 [DE]>[DE] | [CA]>[CA] [EA]>[EB] [Ec]2 [EA]2 | d6 [Fd]>[Fd] | [Ec]>[Ec] [CA]>[=DB] [Ec]2 [EB]2 | %8
w: a help- ing|hand (help- ing hand)? He is|drift- ing, drift-|ing far a- way (far a-|
w: a Chris- tian|pray (Chris- tian pray); Can you|speak to them|a word of cheer (word of|
w: sus and the|light (from the light); They are|drift- ing far|a- way from shore (from the|
 A6 ||"^Refrain" [Ae]>[Ac] | e6 [Ac]>[EB] | A6 [EA]>[EB] | [Ec]<[Ec] [Ec]>[Ec] [Ec]2 A2 | %13
w: way),|And his|feet are on|the sink- ing|sand (sink- ing sand). * *|
w: cheer),|To bring|com- fort to|the sin- ner’s|ear (sin- ner’s ear)? Sink- ing|
w: shore)|Where they|will be lost|for ev- er-|more (ev- er- more). * *|
 B6 [Ae]>[Ac] | e6 [Ac]>[EB] | A6 [EA]>[Ec] | [Ae]<[Ae] [Af]>[Ad] [Ac]2 [EB]2 | A6 |] %18
w: |||||
w: down, sink- ing|down, There’s a|bro- ther sink-|ing down to- day; Sink- ing|down,|
w: |||||
V:2
 x2 | x8 | E2 E>E E2 x2 | x6 A2 | G2 A>A G2 x2 | x8 | F2 F>F F2 x2 | x8 | E2 F>F E2 || x2 | %10
 (A>AG>G A2) x2 | (E>EF>F E2) x2 | x6 (CD) | (E2 =D>D E2) x2 | (A>AG>G A2) x2 | (E>EF>F E2) x2 | %16
 x8 | (E>EF>F E2) |] %18
V:3
 [A,,A,]>[A,,A,] | [A,,A,]>[A,,A,] [A,,A,]>[A,,A,] [C,A,]2 [E,G,]2 | A,2 A,>A, A,2 A,>[A,B,] | %3
w: ||yes, sink- ing down, yes, *|
 [A,C]>[A,C] [A,C]>[A,C] [A,E]2 [A,C]2 | [E,E]2 [F,=D]>[F,D] [E,E]2 [E,G,]>[E,G,] | %5
w: ||
 [A,,A,]>[A,,A,] [C,A,]>[E,G,] A,2 [C,A,]2 | [D,A,]2 [D,A,]>[D,A,] [D,A,]2 [D,A,]>[D,A,] | %7
w: * * * * sink- *||
 [E,A,]>[E,A,] [F,A,]>[_F,A,] [E,A,]2 [E,D]2 | C2 D>D C2 || [A,C]>[A,E] | %10
w: |||
 [A,C]>[A,C] [E,B,]>[E,B,] [A,C]2 [E,E]>[=E,D] | [F,C]>[F,C] [D,D]>[D,D] [A,,C]2 [C,A,]>[E,G,] | %12
w: * ing down, sink- ing * *|* down, yes, drift- ing * *|
 A,<A, A,>A, A,2 A,2 | [E,G,]2 [B,,A,]>[B,,A,] [E,G,]2 [A,C]>[A,E] | %14
w: far a- way. * * *||
 [A,C]>[A,C] [E,B,]>[E,B,] [A,C]2 [E,E]>[=E,D] | [F,C]>[F,C] [D,D]>[D,D] [A,,C]2 [A,C]>A, | %16
w: ||
 [A,C]<[A,C] [D,D]>[D,F] [E,E]2 [E,D]2 | C>C D>D C2 |] %18
w: ||
V:4
 x2 | x8 | A,2 A,>A, A,2 A,3/2 x/ | x8 | x8 | x4 A,2 x2 | x8 | x8 | A,,6 || x2 | x8 | x8 | %12
 A,<A, A,>A, A,2 (F,_F,) | x8 | x8 | x15/2 A,/ | x8 | A,,6 |] %18

